assets/svg/ficon/camera.svg

<?xml version="1.0" encoding="utf-8"?>
<svg width="2048" height="1792" viewBox="0 0 2048 1792" xmlns="http://www.w3.org/2000/svg"><path d="M1024 672q119 0 203.5 84.5t84.5 203.5-84.5 203.5-203.5 84.5-203.5-84.5-84.5-203.5 84.5-203.5 203.5-84.5zm704-416q106 0 181 75t75 181v896q0 106-75 181t-181 75h-1408q-106 0-181-75t-75-181v-896q0-106 75-181t181-75h224l51-136q19-49 69.5-84.5t103.5-35.5h512q53 0 103.5 35.5t69.5 84.5l51 136h224zm-704 1152q185 0 316.5-131.5t131.5-316.5-131.5-316.5-316.5-131.5-316.5 131.5-131.5 316.5 131.5 316.5 316.5 131.5z" fill="#60be86"/></svg>

<svg width="2048" height="1792" xmlns="http://www.w3.org/2000/svg"><path d="M1024 672q119 0 203.5 84.5T1312 960t-84.5 203.5T1024 1248t-203.5-84.5T736 960t84.5-203.5T1024 672zm704-416q106 0 181 75t75 181v896q0 106-75 181t-181 75H320q-106 0-181-75t-75-181V512q0-106 75-181t181-75h224l51-136q19-49 69.5-84.5T768 0h512q53 0 103.5 35.5T1453 120l51 136h224zm-704 1152q185 0 316.5-131.5T1472 960t-131.5-316.5T1024 512 707.5 643.5 576 960t131.5 316.5T1024 1408z" fill="#60be86"/></svg>
